!!!XEN: The sound of his footsteps
!!!AGN: Moccasin game [gambling] song
!!!COM: Anonymous
!!!CNT: Native American -- Ojibway
!!!TXO: Ojibway
!!!MLC: Waba'cing village, Red Lake reservation, northern Minnesota, U.S.A.
!!!MRD: 1909-1912///
!!!MPN: A'jide'gijig ("Crossing sky")
**kern
*MM81
*Imale
*k[b-e-a-]
*clefF4
*M3/8
=1
4e-
8B-
=2
4e-
8f
=3
8e-
4e-
=4
*M2/8
8f
8e-
=5
*M3/8
8e-
4B-
=6
4B-
8F
=7
4B-
8e-
=8
8B-
4B-
=9
*M2/8
4e-
=10
*M3/8
8B-
4F
=11
4F
8E-
=12
4F
8B-
=13
8F
4F
=14
*M2/8
8G
8G
=15
*M3/8
8F
4E-
=16
4E-
8BB-
=17
4E-
8F
=18
8E-
4E-
=19
8E-
4E-
=20
4.BB-
=21
4.BB-
=22
*M2/8
8B-
8B-
=23
8.B-
16F
=24
*M3/8
8B-
8B-
16.e-
32e-
=25
*M2/8
8G
8G
=26
4e-
=27
*M3/8
4B-
8F
=28
4F
8E-
=29
4F
8B-
=30
8F
4F
=31
*M2/8
8G
8G
=32
*M3/8
8F
4E-
=33
4E-
8BB-
=34
4E-
8F
=35
8E-
4E-
=36
4.BB-
=37
4.BB-
==
*-
!!!OCL: Frances Densmore
!!!YOR: Chippewa [i.e., Ojibway] Music--II, Bulletin 53 of the Bureau of American Ethnology, Smitsonian Institution
!!!ONM: 162
!!!PPG: 283
!!!PUB: published
!!!PPR: Government Printing Office
!!!PPP: Washington, D.C.
!!!PDT: 1912///
!!!EST: missing clef changes, text, drum tempo, and drum part
!!!YEC: Copyright 1998 Paul von Hippel
!!!YEM: Rights to all derivate electronic formats reserved.
!!!EFL: 40/42
